suite-common/icons/assets/icons/treeStructure.svg

<svg xmlns="http://www.w3.org/2000/svg" xml:space="preserve" fill="none" viewBox="0 0 20 20">
  <path fill="#000" fill-rule="evenodd" d="M12.708 2.448c-.285.09-.58.327-.748.602-.159.259-.172.334-.191 1.1l-.019.733-.517.021c-.4.016-.569.038-.75.096-.746.238-1.339.767-1.627 1.452-.19.454-.198.517-.214 1.706l-.014 1.109H7.009l-.017-.559c-.014-.463-.03-.59-.089-.746a1.42 1.42 0 0 0-.798-.802c-.186-.075-.21-.076-1.884-.087-1.102-.007-1.777.002-1.927.026a1.35 1.35 0 0 0-1.031.776l-.113.242v3.766l.113.242c.198.422.574.705 1.031.776.15.024.825.033 1.927.026 1.674-.011 1.698-.012 1.884-.087a1.42 1.42 0 0 0 .798-.802c.059-.156.075-.283.089-.746l.017-.559h1.624l.001.992c.002 1.102.028 1.335.194 1.751.297.74.879 1.276 1.655 1.524.181.058.35.08.75.096l.517.021.019.733c.019.787.03.843.215 1.135.132.208.339.389.582.508l.184.09h4.5l.184-.09c.369-.181.64-.495.748-.867.047-.163.053-.437.044-2.33l-.009-2.146-.104-.218a1.4 1.4 0 0 0-.976-.765c-.241-.045-4.033-.045-4.274 0-.417.079-.789.37-.976.764l-.104.219-.011.742-.011.741h-.339c-.499-.001-.755-.094-1.001-.366a1.1 1.1 0 0 1-.288-.623c-.05-.332-.026-5.32.027-5.478.111-.334.435-.654.753-.747.111-.032.31-.052.514-.052h.334l.011.741.011.742.104.218c.185.392.562.687.976.765.108.02.954.034 2.137.034s2.029-.014 2.137-.034c.414-.078.791-.373.976-.765l.104-.218.009-2.146c.009-1.893.003-2.167-.044-2.33a1.42 1.42 0 0 0-.748-.867l-.184-.09-2.2-.007c-1.761-.005-2.228.002-2.342.038m4.051 3.177-.009 1.758h-3.5l-.009-1.758-.008-1.758h3.534zM5.5 10.017v1.45l-1.442-.008-1.441-.009-.009-1.442-.009-1.441H5.5zm11.259 4.358.008 1.758h-3.534v-1.744c0-.96.01-1.755.023-1.767s.803-.019 1.758-.014l1.736.009z"/>
</svg>

<svg xmlns="http://www.w3.org/2000/svg" xml:space="preserve" fill="none" viewBox="0 0 20 20"><path d="M12.708 2.448 C 12.423 2.538,12.128 2.775,11.960 3.050 C 11.801 3.309,11.788 3.384,11.769 4.150 L 11.750 4.883 11.233 4.904 C 10.833 4.920,10.664 4.942,10.483 5.000 C 9.737 5.238,9.144 5.767,8.856 6.452 C 8.666 6.906,8.658 6.969,8.642 8.158 L 8.628 9.267 7.819 9.267 L 7.009 9.267 6.992 8.708 C 6.978 8.245,6.962 8.118,6.903 7.962 C 6.766 7.602,6.473 7.308,6.105 7.160 C 5.919 7.085,5.895 7.084,4.221 7.073 C 3.119 7.066,2.444 7.075,2.294 7.099 C 1.837 7.170,1.461 7.453,1.263 7.875 L 1.150 8.117 1.150 10.000 L 1.150 11.883 1.263 12.125 C 1.461 12.547,1.837 12.830,2.294 12.901 C 2.444 12.925,3.119 12.934,4.221 12.927 C 5.895 12.916,5.919 12.915,6.105 12.840 C 6.473 12.692,6.766 12.398,6.903 12.038 C 6.962 11.882,6.978 11.755,6.992 11.292 L 7.009 10.733 7.821 10.733 L 8.633 10.733 8.634 11.725 C 8.636 12.827,8.662 13.060,8.828 13.476 C 9.125 14.216,9.707 14.752,10.483 15.000 C 10.664 15.058,10.833 15.080,11.233 15.096 L 11.750 15.117 11.769 15.850 C 11.788 16.637,11.799 16.693,11.984 16.985 C 12.116 17.193,12.323 17.374,12.566 17.493 L 12.750 17.583 15.000 17.583 L 17.250 17.583 17.434 17.493 C 17.803 17.312,18.074 16.998,18.182 16.626 C 18.229 16.463,18.235 16.189,18.226 14.296 L 18.217 12.150 18.113 11.932 C 17.928 11.540,17.551 11.245,17.137 11.167 C 16.896 11.122,13.104 11.122,12.863 11.167 C 12.446 11.246,12.074 11.537,11.887 11.931 L 11.783 12.150 11.772 12.892 L 11.761 13.633 11.422 13.633 C 10.923 13.632,10.667 13.539,10.421 13.267 C 10.254 13.083,10.174 12.908,10.133 12.644 C 10.083 12.312,10.107 7.324,10.160 7.166 C 10.271 6.832,10.595 6.512,10.913 6.419 C 11.024 6.387,11.223 6.367,11.427 6.367 L 11.761 6.367 11.772 7.108 L 11.783 7.850 11.887 8.068 C 12.072 8.460,12.449 8.755,12.863 8.833 C 12.971 8.853,13.817 8.867,15.000 8.867 C 16.183 8.867,17.029 8.853,17.137 8.833 C 17.551 8.755,17.928 8.460,18.113 8.068 L 18.217 7.850 18.226 5.704 C 18.235 3.811,18.229 3.537,18.182 3.374 C 18.074 3.002,17.803 2.688,17.434 2.507 L 17.250 2.417 15.050 2.410 C 13.289 2.405,12.822 2.412,12.708 2.448 M16.759 5.625 L 16.750 7.383 15.000 7.383 L 13.250 7.383 13.241 5.625 L 13.233 3.867 15.000 3.867 L 16.767 3.867 16.759 5.625 M5.500 10.017 L 5.500 11.467 4.058 11.459 L 2.617 11.450 2.608 10.008 L 2.599 8.567 4.050 8.567 L 5.500 8.567 5.500 10.017 M16.759 14.375 L 16.767 16.133 15.000 16.133 L 13.233 16.133 13.233 14.389 C 13.233 13.429,13.243 12.634,13.256 12.622 C 13.268 12.610,14.059 12.603,15.014 12.608 L 16.750 12.617 16.759 14.375 " stroke="none" fill-rule="evenodd" fill="black"></path></svg>
